extras/plugin-icons/total-conversion-build.svg

<?xml version="1.0" encoding="UTF-8" standalone="no"?>
<svg
   width="32"
   height="32"
   version="1.1"
   viewBox="0 0 32 32"
   xml:space="preserve"
   id="svg4"
   sodipodi:docname="total-conversion-build.svg"
   inkscape:version="1.3.2 (091e20e, 2023-11-25)"
   xmlns:inkscape="http://www.inkscape.org/namespaces/inkscape"
   xmlns:sodipodi="http://sodipodi.sourceforge.net/DTD/sodipodi-0.dtd"
   xmlns="http://www.w3.org/2000/svg"
   xmlns:svg="http://www.w3.org/2000/svg"><defs
     id="defs4"><filter
       inkscape:collect="always"
       style="color-interpolation-filters:sRGB"
       id="filter2024"
       x="-0.012928045"
       width="1.0258561"
       y="-0.011196272"
       height="1.0223925"><feGaussianBlur
         inkscape:collect="always"
         stdDeviation="0.67625008"
         id="feGaussianBlur2026" /></filter><radialGradient
       id="SVGID_7_"
       cx="65.649902"
       cy="81.299797"
       r="81.832703"
       gradientUnits="userSpaceOnUse">
			<stop
   offset="0"
   style="stop-color:#79419d;stop-opacity:1"
   id="stop44" />
			<stop
   offset="1"
   style="stop-color:#592d92;stop-opacity:1"
   id="stop46" />
		</radialGradient></defs><sodipodi:namedview
     id="namedview4"
     pagecolor="#ffffff"
     bordercolor="#000000"
     borderopacity="0.25"
     inkscape:showpageshadow="2"
     inkscape:pageopacity="0.0"
     inkscape:pagecheckerboard="0"
     inkscape:deskcolor="#d1d1d1"
     showguides="true"
     inkscape:zoom="17.284962"
     inkscape:cx="9.2855282"
     inkscape:cy="17.818957"
     inkscape:window-width="2528"
     inkscape:window-height="1359"
     inkscape:window-x="45"
     inkscape:window-y="25"
     inkscape:window-maximized="0"
     inkscape:current-layer="svg4" /><rect
     x=".4923"
     y=".4923"
     width="31.02"
     height="31.02"
     ry="4.258"
     fill="#643893"
     stroke="#371a4a"
     stroke-width=".9846"
     id="rect1" /><polygon
     transform="matrix(0.19332644,0,0,0.19332644,3.0203636,0.30686026)"
     points="124.959,114.585 124.959,51.93 98.581,67.16 98.581,105.146 119.944,117.481 "
     id="polygon28"
     style="fill:#191b28;fill-opacity:1;stroke:none;stroke-width:0.5;stroke-miterlimit:4;stroke-dasharray:none;stroke-opacity:1" /><polygon
     transform="matrix(0.1780445,0,0,0.1780445,4.0465465,1.5473684)"
     points="35.752,96.307 35.752,58.133 13.66,45.377 9.374,47.852 9.374,111.538 "
     id="polygon21"
     style="display:inline;fill:#191b28;fill-opacity:1;stroke:none;stroke-width:0.5;stroke-miterlimit:4;stroke-dasharray:none;stroke-opacity:1" /><path
     inkscape:connector-curvature="0"
     style="display:inline;opacity:0.905;fill:#0b0b0b;fill-opacity:1;fill-rule:evenodd;stroke:none;stroke-width:1px;stroke-linecap:butt;stroke-linejoin:miter;stroke-opacity:1;filter:url(#filter2024)"
     d="m 80.210401,-120.70649 -62.75391,36.261715 0.0137,72.48242 62.78125,36.21485 62.746089,-36.24024 v -72.468749 z m 0.0332,5.7793 17.66797,10.19922 -5.33985,3.08398 c -0.78,0.448 -1.25976,1.28069 -1.25976,2.179685 v 67.810548 c 0,0.898 0.47976,1.72873 1.25976,2.17773 l 14.048829,8.113282 V 3.3091352 L 80.241641,18.537645 63.628361,8.9458552 l 4.60938,-2.66211 c 0.778,-0.451 1.25976,-1.28164 1.25976,-2.18165 V -63.708447 c 0,-0.899 -0.48176,-1.730687 -1.25976,-2.179687 l -14.37305,-8.298829 v -25.277342 c 0,-0.076 -0.009,-0.15061 -0.0156,-0.22461 z m 22.701169,13.10742 33.58984,19.39062 -28.65429,16.542969 c -0.778,0.45 -1.25781,1.280687 -1.25781,2.179687 v 36.531249 l -10.275389,-5.931642 h -0.002 v -64.904298 z m -54.115229,5.027335 v 19.699222 l -17.0586,-9.849609 z m -22.09375,12.755863 22.09375,12.755859 v 38.173826 l -26.37891,15.230472 v -63.685548 z m 111.300769,6.552735 v 62.654292 l -5.01562,2.89649 -21.36329,-12.33399 v -37.986324 z m -84.171869,9.109374 10.59766,6.121094 V 2.6489752 l -5.86914,3.38867 -33.75,-19.4824202 27.76172,-16.029292 c 0.778,-0.449 1.25976,-1.28069 1.25976,-2.17969 z m 57.792959,49.917968 16.32813,9.4277402 -16.32813,9.42968005 z"
     id="path851-7"
     transform="matrix(0.1780445,0,0,0.1780445,1.7183244,24.588851)" /><path
     style="display:inline;fill:#ffffff;fill-rule:evenodd;stroke:none;stroke-width:0.178044px;stroke-linecap:butt;stroke-linejoin:miter;stroke-opacity:1"
     d="M 15.999345,3.0977247 4.8263565,9.5539245 4.8287904,22.459023 16.006646,28.906876 27.178242,22.454502 V 9.5518379 Z m 0.0059,1.0289727 3.145685,1.815915 -0.950729,0.5490858 C 18.061339,6.5714619 17.975919,6.719718 17.975919,6.879779 v 12.073296 c 0,0.159883 0.08542,0.307791 0.224295,0.387734 l 2.501317,1.444525 v 4.392691 l -4.69662,2.711353 -2.957904,-1.707765 0.820675,-0.473974 c 0.138519,-0.0803 0.224294,-0.228189 0.224294,-0.38843 V 13.245913 c 0,-0.160061 -0.08577,-0.308139 -0.224294,-0.388082 l -2.559045,-1.47756 V 6.879779 c 0,-0.013532 -0.0016,-0.026815 -0.0029,-0.039991 z m 4.041817,2.3337041 5.980487,3.4523939 -5.101741,2.9453836 c -0.138518,0.08012 -0.223946,0.228021 -0.223946,0.388083 v 6.504189 l -1.829475,-1.056096 h -3.58e-4 V 7.1385008 Z M 10.412155,7.3554927 V 10.86283 L 7.3749663,9.1091609 Z M 6.4784842,9.6266026 10.412155,11.897713 v 6.796642 L 5.7155358,21.406056 V 10.067193 Z M 26.294975,10.793281 v 11.155254 l -0.893004,0.515704 -3.803616,-2.195999 v -6.763258 z m -14.986338,1.621874 1.886856,1.089827 v 11.555505 l -1.04497,0.603335 -6.009002,-3.468736 4.942821,-2.853929 c 0.138519,-0.07995 0.224295,-0.228021 0.224295,-0.388082 z m 10.289718,8.887622 2.907134,1.678557 -2.907134,1.678901 z"
     id="path851"
     inkscape:connector-curvature="0" /></svg>

<?xml version="1.0" encoding="UTF-8"?>
<svg width="32" height="32" version="1.1" viewBox="0 0 32 32" xml:space="preserve" xmlns="http://www.w3.org/2000/svg"><rect x=".4923" y=".4923" width="31.02" height="31.02" ry="4.258" fill="#643893" stroke="#371a4a" stroke-width=".9846"/><polygon transform="matrix(.19333 0 0 .19333 2.54 .23096)" points="98.581 105.15 119.94 117.48 124.96 114.58 124.96 51.93 98.581 67.16" fill="#191b28"/><polygon transform="matrix(.17804 0 0 .17804 4.0465 1.5474)" points="35.752 96.307 35.752 58.133 13.66 45.377 9.374 47.852 9.374 111.54" fill="#191b28"/><path d="m15.999 3.0977-11.173 6.4562 0.0024339 12.905 11.178 6.4479 11.172-6.4524v-12.903zm0.0059 1.029 3.1457 1.8159-0.95073 0.54909c-0.13886 0.079764-0.22428 0.22802-0.22428 0.38808v12.073c0 0.15988 0.08542 0.30779 0.2243 0.38773l2.5013 1.4445v4.3927l-4.6966 2.7114-2.9579-1.7078 0.82068-0.47397c0.13852-0.0803 0.22429-0.22819 0.22429-0.38843v-12.073c0-0.16006-0.08577-0.30814-0.22429-0.38808l-2.559-1.4776v-4.5005c0-0.013532-0.0016-0.026815-0.0029-0.039991zm4.0418 2.3337 5.9805 3.4524-5.1017 2.9454c-0.13852 0.08012-0.22395 0.22802-0.22395 0.38808v6.5042l-1.8295-1.0561h-3.58e-4v-11.556zm-9.6349 0.89509v3.5073l-3.0372-1.7537zm-3.9337 2.2711 3.9337 2.2711v6.7966l-4.6966 2.7117v-11.339zm19.816 1.1667v11.155l-0.893 0.5157-3.8036-2.196v-6.7633zm-14.986 1.6219 1.8869 1.0898v11.556l-1.045 0.60334-6.009-3.4687 4.9428-2.8539c0.13852-0.07995 0.2243-0.22802 0.2243-0.38808zm10.29 8.8876 2.9071 1.6786-2.9071 1.6789z" fill="#fff" fill-rule="evenodd"/></svg>
